X:1
T:Title
%%score ( 1 2 ) { 3 | 4 }
L:1/8
Q:1/4=88
M:4/4
K:E
V:1 treble nm="Grand Piano, Soprano"
V:2 treble 
V:3 bass nm="Choir Pad, Coming, Yes, We’re Coming"
V:4 bass 
V:1
 E[EG][EG][EG] [EG] [EG]2 [B,E] | [B,E][DF][DF][DF] [EG] [FA]2 [EG] | %2
w: By~William~Howard~Doane * * * * * *||
 [DF][EG][EG][EG] [FA] [GB]2 [Ge] | [Ac][GB][Ac][GB] [EG] [DF]3 | E[EG][EG][EG] [EG] [EG]2 [B,E] | %5
w: |||
 [B,E][DF][DF][DF] [EG] [FA]2 [EG] | z4 z e z2 | [CF][B,E][B,E][EG] [DF] E3- | %8
w: |||
 E[GB][GB][EG] [Ge] [GB]2 [EG]- | [EG][FA][FA][DF] [Ac] [GB]2 [EG]- | %10
w: ||
 [EG][GB][GB][EG] [Ge] [GB]2 [EG] | [EG][GB][FA][EG] [DF] .E3 | z [GB][GB][EG] [Ge] [GB]2 [EG]- | %13
w: |||
 [EG][FA][FA][DF] [Ac] [GB]2 [EG]- | [EG][GB][GB][EG] [Ge] [GB]2 [EG] | [EG][GB][FA][EG] [DF] E3- | %16
w: |||
 E4 z4 |] %17
w: |
V:2
 x8 | x8 | x8 | x8 | x8 | x8 | [DF][EG][FA][FB] [Ge]A-[Ac][FA] | x8 | x8 | x8 | x8 | x8 | x8 | x8 | %14
 x8 | x8 | x8 |] %17
V:3
 G,B,B,B, B, B,2 G, | G,B,B,B, B, B,2 B,- | B,B,B,B, B,[K:treble] E2 B, | EEEE[K:bass] B, B,3 | %4
 G,B,B,B, B, B,2 G, | G,B,B,B, B, B,2 B,- | B,B,B,B, B,[K:treble]CEC | A,G,[K:bass]G,B, A, G,3- | %8
 G,[K:treble]E .E2 z E2 B,- | B,[K:bass]B, .B,2 z B,2 B,- | B,[K:treble]E .E2 z E2 B, | %11
 B,[K:bass]B,B,B, A, .G,3 | z[K:treble] E .E2 z E2 B,- | B,[K:bass]B, .B,2 z B,2 B,- | %14
 B,[K:treble]E .E2 z E2 B, | B,[K:bass]B,B,B, A, G,3- | G,4 z4 |] %17
V:4
 E,E,E,E, E, E,2 E, | E,B,,B,,B,, B,, B,,2 B,,- | B,,E,E,E, E, E,2 E, | E,E,E,E, E, B,,3 | %4
 E,E,E,E, E, E,2 E, | E,B,,B,,B,, B,, B,,2 B,,- | B,,E,E,E, E, A,2 A,, | A,,B,,B,,B,, B,, E,3- | %8
 E,E, .E,2 z E,2 E,- | E,B,, .B,,2 z E,2 E,- | E,E, .E,2 z E,2 E, | E,B,,B,,B,, B,, .E,3 | %12
 z E, .E,2 z E,2 E,- | E,B,, .B,,2 z E,2 E,- | E,E, .E,2 z E,2 E, | E,B,,B,,B,, B,, E,3- | %16
 E,4 z4 |] %17

